images/svg/LOCATION.svg

<svg width="30" height="32" viewBox="0 0 30 32" fill="none" xmlns="http://www.w3.org/2000/svg">
<path d="M16.2187 14.6306C16.2187 14.7597 16.2705 14.8835 16.3625 14.9748C16.4546 15.0661 16.5795 15.1174 16.7098 15.1174H19.6559C19.7861 15.1174 19.911 15.0661 20.0031 14.9748C20.0951 14.8835 20.1469 14.7597 20.1469 14.6306V11.223C20.345 11.2219 20.5233 11.1031 20.5987 10.9212C20.6756 10.7399 20.6348 10.5306 20.4954 10.3907L18.5313 8.44351C18.4388 8.35224 18.3132 8.3016 18.1828 8.30225H13.2726C13.1422 8.3016 13.0166 8.35224 12.9241 8.44351L10.96 10.3907C10.8206 10.5306 10.7798 10.7399 10.8568 10.9212C10.9322 11.1031 11.1104 11.2219 11.3086 11.223V14.6306C11.3086 14.7597 11.3603 14.8835 11.4524 14.9748C11.5444 15.0661 11.6694 15.1174 11.7996 15.1174H14.7457C14.8759 15.1174 15.0008 15.0661 15.0929 14.9748C15.185 14.8835 15.2367 14.7597 15.2367 14.6306V13.657H16.2187L16.2187 14.6306ZM14.7457 12.6834C14.4745 12.6834 14.2547 12.9014 14.2547 13.1702V14.1438H12.2906V11.223H12.7816V11.7098H13.7636V11.223H14.2547V11.7098H15.2367V11.223H15.7277V11.7098H16.7098V11.223H17.2008V11.7098H18.1828V11.223H19.1648V14.1438H17.2008V13.1702C17.2008 13.0411 17.149 12.9172 17.057 12.826C16.9649 12.7347 16.84 12.6834 16.7098 12.6834H14.7457Z" fill="#CAD3DB"/>
<path d="M0 24.5616C0.00133929 25.0139 0.149328 25.4533 0.420751 25.8104C0.692174 26.1678 1.07165 26.4229 1.49999 26.5359V29.6767C1.49999 30.2291 1.82989 30.807 5.7499 31.2726C8.82281 31.5939 11.9109 31.7442 15 31.7227C18.089 31.7442 21.177 31.5939 24.2501 31.2726C28.1701 30.8073 28.5 30.2496 28.5 29.6767V26.5359C28.9284 26.4228 29.3078 26.1678 29.5792 25.8104C29.8507 25.4533 29.9987 25.0139 30 24.5616C30 23.9784 29.425 20.4695 28 20.4695C26.575 20.4695 26.0001 23.9783 26.0001 24.5616C26.0014 25.0139 26.1494 25.4533 26.4208 25.8104C26.6923 26.1678 27.0717 26.4229 27.5001 26.5359V28.7098C26.5045 28.4029 25.4809 28.2006 24.4452 28.1063C21.7466 27.8062 19.0348 27.6473 16.3202 27.6306C16.8501 26.2087 17.4852 24.4031 17.8202 23.1755C20.5413 22.4765 22.919 20.7842 24.5052 18.4166C26.0916 16.0493 26.7771 13.1702 26.4331 10.3213C26.0889 7.47284 24.7387 4.85116 22.6365 2.95033C20.5346 1.04927 17.8257 0 15.0201 0C12.2143 0 9.50546 1.04927 7.40367 2.95033C5.30189 4.85139 3.95151 7.47307 3.60729 10.3213C3.26311 13.17 3.94881 16.0491 5.53514 18.4166C7.12151 20.7842 9.49889 22.4765 12.2201 23.1755C12.5351 24.4031 13.1701 26.2087 13.7201 27.6306C11.0057 27.6441 8.29388 27.7994 5.59514 28.096C4.54539 28.191 3.50832 28.3968 2.50012 28.7098V26.5359C2.92846 26.4229 3.30793 26.1678 3.57935 25.8104C3.85077 25.4533 3.99876 25.0139 4.0001 24.5616C4.0001 23.9784 3.42514 20.4695 2.00014 20.4695C0.575143 20.4695 0.000182666 23.9783 0.000182666 24.5616L0 24.5616ZM7.99984 11.7738C7.99984 9.87463 8.73731 8.05308 10.05 6.71011C11.3627 5.36715 13.1433 4.61269 14.9997 4.61269C16.8561 4.61269 18.6367 5.36715 19.9494 6.71011C21.2621 8.05308 21.9996 9.87463 21.9996 11.7738C21.9996 13.673 21.2621 15.4946 19.9494 16.8375C18.6367 18.1805 16.8561 18.935 14.9997 18.935C13.1433 18.935 11.3627 18.1805 10.05 16.8375C8.73731 15.4946 7.99984 13.673 7.99984 11.7738ZM14.0649 28.6537C14.3249 29.3339 14.5148 29.7995 14.5349 29.8607C14.6104 30.0559 14.7948 30.1843 14.9999 30.1843C15.205 30.1843 15.3894 30.0559 15.4648 29.8607C15.4648 29.7993 15.6749 29.3492 15.9349 28.6537C21.9348 28.6945 25.9896 29.2163 27.2147 29.6767C25.9248 30.1523 21.5398 30.6997 15.0001 30.6997C8.46032 30.6997 4.07515 30.1523 2.78546 29.6767C4.00041 29.2266 8.06033 28.7048 14.0652 28.6537H14.0649Z" fill="#CAD3DB"/>
</svg>

<svg xmlns="http://www.w3.org/2000/svg" width="30" height="32" fill="none"><path fill="#CAD3DB" d="M16.219 14.63a.485.485 0 0 0 .49.487h2.947a.485.485 0 0 0 .491-.487v-3.407a.491.491 0 0 0 .452-.302.483.483 0 0 0-.104-.53l-1.964-1.947a.493.493 0 0 0-.348-.142h-4.91c-.13 0-.256.05-.349.142L10.96 10.39c-.14.14-.18.349-.103.53.075.182.253.3.452.302v3.408c0 .129.051.252.143.344a.493.493 0 0 0 .348.142h2.946a.485.485 0 0 0 .491-.487v-.973h.982v.974Zm-1.473-1.947a.489.489 0 0 0-.491.487v.974H12.29v-2.921h.49v.487h.983v-.487h.49v.487h.983v-.487h.49v.487h.983v-.487h.49v.487h.983v-.487h.982v2.92H17.2v-.973a.485.485 0 0 0-.491-.487h-1.964Z"/><path fill="#CAD3DB" d="M0 24.562c.001.452.15.891.42 1.248.272.358.652.613 1.08.726v3.14c0 .553.33 1.131 4.25 1.597a83.37 83.37 0 0 0 9.25.45 83.373 83.373 0 0 0 9.25-.45c3.92-.466 4.25-1.023 4.25-1.596v-3.141a1.996 1.996 0 0 0 1.08-.726c.27-.357.419-.796.42-1.248 0-.584-.575-4.093-2-4.093s-2 3.51-2 4.093c.001.452.15.891.42 1.248.272.358.652.613 1.08.726v2.174a14.98 14.98 0 0 0-3.055-.604c-2.698-.3-5.41-.459-8.125-.475.53-1.422 1.165-3.228 1.5-4.456a11.503 11.503 0 0 0 6.685-4.758 11.976 11.976 0 0 0 1.928-8.096 11.85 11.85 0 0 0-3.796-7.37A11.351 11.351 0 0 0 15.02 0a11.35 11.35 0 0 0-7.616 2.95 11.853 11.853 0 0 0-3.797 7.371 11.976 11.976 0 0 0 1.928 8.096 11.504 11.504 0 0 0 6.685 4.758c.315 1.228.95 3.034 1.5 4.456a77.918 77.918 0 0 0-8.125.465c-1.05.095-2.087.3-3.095.614v-2.174a1.996 1.996 0 0 0 1.08-.726c.27-.357.419-.796.42-1.248 0-.584-.575-4.093-2-4.093s-2 3.51-2 4.093Zm8-12.788c0-1.9.737-3.72 2.05-5.064A6.921 6.921 0 0 1 15 4.613c1.856 0 3.637.754 4.95 2.097A7.246 7.246 0 0 1 22 11.774c0 1.899-.738 3.72-2.05 5.063A6.921 6.921 0 0 1 15 18.935a6.921 6.921 0 0 1-4.95-2.098A7.246 7.246 0 0 1 8 11.774Zm6.065 16.88c.26.68.45 1.145.47 1.207a.5.5 0 0 0 .465.323.5.5 0 0 0 .465-.323c0-.062.21-.512.47-1.207 6 .04 10.055.562 11.28 1.023C25.925 30.152 21.54 30.7 15 30.7s-10.925-.548-12.215-1.023c1.215-.45 5.275-.972 11.28-1.023Z"/></svg>
